apps/explorer/src/assets/img/Trader-variant.svg

<svg fill="none" height="51" viewBox="0 0 51 51" width="51" xmlns="http://www.w3.org/2000/svg" xmlns:xlink="http://www.w3.org/1999/xlink"><linearGradient id="a" gradientUnits="userSpaceOnUse" x1="8.55273" x2="40.767" y1="41.6299" y2="7.67678"><stop offset="0" stop-color="#ffe7e0"/><stop offset=".34375" stop-color="#f8dbf4"/><stop offset=".6875" stop-color="#c4ddff"/><stop offset="1" stop-color="#cae9ff"/></linearGradient><radialGradient id="b" cx="25.5521" cy="21.3372" gradientUnits="userSpaceOnUse" r="12.301"><stop offset="0" stop-color="#464648"/><stop offset=".536272" stop-color="#2e2d2d"/><stop offset=".990474" stop-color="#1b1919"/><stop offset="1" stop-color="#1b1919"/></radialGradient><linearGradient id="c"><stop offset="0" stop-color="#efee0e"/><stop offset=".517399" stop-color="#7fcc2a"/><stop offset="1" stop-color="#3aae9b"/></linearGradient><linearGradient id="d" gradientUnits="userSpaceOnUse" x1="19.2918" x2="19.5549" xlink:href="#c" y1="25.0223" y2="18.2696"/><linearGradient id="e" gradientUnits="userSpaceOnUse" x1="31.5808" x2="31.6246" xlink:href="#c" y1="24.9371" y2="18.4036"/><linearGradient id="f"><stop offset="0" stop-color="#f5f460"/><stop offset=".517399" stop-color="#bfe587"/><stop offset="1" stop-color="#82d4c5"/></linearGradient><linearGradient id="g" gradientUnits="userSpaceOnUse" x1="19.2936" x2="19.5566" xlink:href="#f" y1="25.0224" y2="18.2697"/><linearGradient id="h" gradientUnits="userSpaceOnUse" x1="19.2938" x2="19.5569" xlink:href="#f" y1="25.0225" y2="18.2698"/><linearGradient id="i" gradientUnits="userSpaceOnUse" x1="31.5815" x2="31.6254" xlink:href="#f" y1="24.9372" y2="18.4037"/><linearGradient id="j" gradientUnits="userSpaceOnUse" x1="31.5828" x2="31.6267" xlink:href="#f" y1="24.937" y2="18.4035"/><circle cx="25.5527" cy="25.5005" fill="#2a4266" r="25"/><path d="m25.553 28.0609c-6.4977 0-11.7648 3.0374-11.7648 6.7845s5.2671 6.7845 11.7648 6.7845 11.7648-3.0375 11.7648-6.7845-5.2674-6.7845-11.7648-6.7845zm-5.6487 7.6561c-1.1926.5829-2.3032 0-2.5162-1.3217-.2334-1.4159 1.6719-4.7811 2.1104-2.2364.4382 2.5445 2.3891-1.0137 2.4011.5787-.0652 1.2857-.8321 2.4311-1.9953 2.9794zm14.527-1.3217c-.213 1.3217-1.3236 1.9046-2.5159 1.3217-1.1635-.5483-1.9304-1.6937-1.9953-2.9794.012-1.5924 1.9626 1.9658 2.4011-.5787.4382-2.5447 2.3432.8205 2.1101 2.2364z" fill="url(#a)"/><path d="m42.5284 12.3518c-.3375-2.41599-8.4975-.6929-9.5579-.5104-.0545.0093-.1053-.0372-.0942-.0913.108-.5413.186-2.00506-.8492-2.32196-.662-.20272-1.0983.17134-1.3575.54879-.1159.16937-.463.90127-.6786 1.40937-.1162.2744-.3867.6754-.6843.6682-1.2477-.389-2.5008-.5835-3.7537-.5835-1.2532 0-2.5064.1945-3.7541.5835-.2975.0072-.5683-.3938-.6845-.6682-.2156-.5081-.5627-1.24-.6786-1.40937-.2589-.37745-.6952-.75151-1.3572-.54879-1.0353.3169-.9574 1.78066-.8493 2.32196.0109.0541-.0399.1006-.0941.0913-1.0605-.1825-9.22039-1.90559-9.55812.5104-.32036 2.2916 2.57352 5.4519 5.60152 6.8722.2923.1371.5247.3688.808.523.4765.2598.7608.9081.691 1.4928v8.439l1.1056-.6351c1.6851-.9667 3.444-1.4191 4.7981-1.6875h.048c1.082-.2404 2.1865-.364 3.2949-.3692h1.2573c1.1082.0052 2.2127.1288 3.2949.3692h.0477c1.3543.2684 3.1131.7208 4.7987 1.6875l1.1055.6351v-8.439c-.07-.5847.214-1.233.6905-1.4928.2838-.1542.5157-.3859.8081-.523 3.0279-1.4203 5.9221-4.5806 5.6015-6.8722zm-17.763 8.6517c-.0467.2504-.6438.7114-2.1242 1.0934-1.0366.2612-2.1151.3585-3.182.2926-.2509-.0158-.5023-.0576-.7349-.1526-.4247-.173-.7834-.4704-1.0503-.8624-.3603-.5119-.5321-1.0818-.4221-1.698.1071-.6168.463-1.0938.9767-1.4511.3846-.2772.8233-.4338 1.2814-.4509.2508-.0091.5017.0372.7424.1086 1.0251.3032 2.0057.7645 2.8905 1.365 1.2607.8658 1.6643 1.5037 1.6225 1.7554zm8.6663.371c-.2667.392-.6257.6894-1.0503.8623-.2324.0951-.484.1369-.7346.1527-1.0669.0659-2.1458-.0314-3.1823-.2926-1.4807-.382-2.0773-.843-2.124-1.0934-.0418-.2517.3616-.8896 1.6225-1.7555.8848-.6004 1.8651-1.0617 2.8905-1.3649.2408-.0714.4913-.1177.7424-.1086.4579.017.897.1737 1.2815.4509.5136.3573.8695.834.9764 1.4509.1099.6161-.0618 1.1863-.4221 1.6982z" fill="url(#a)"/><path d="m31.2705 25.5005c-.4451 0-.7314-.0277-.7314-.0277s-.0802.0124-.219.0124c-.1803 0-.4595-.021-.7902-.1175-.8657-.2528-2.0845-1.0231-2.807-3.2895 0 0-.4226-1.8788-1.1762-1.9103-.7536.0315-1.1794 1.9103-1.1794 1.9103-.7224 2.2664-1.941 3.0368-2.8064 3.2895-.3307.0966-.6097.1175-.79.1175-.1387 0-.2189-.0124-.2189-.0124s-.0971.0039-.267.0039c-.3569 0-1.0354-.0173-1.8112-.1249-.578-.0801-1.2102-.2105-1.8036-.421-1.7686-.6276-2.2868-2.6814-2.4295-3.8223-.0924-.7399-.4594-1.196-.706-1.4252-.1493-.1388-.232-.3349-.232-.5387v-1.9441c.524-.0183 1.0424-.0267 1.5538-.0267 4.2572 0 7.9913.5826 9.726.9038.3196.0592.643.0887.9665.0887.323 0 .6462-.0295.9653-.0885 1.7364-.3212 5.4742-.904 9.7333-.904.5113 0 1.0301.0084 1.5539.0267v1.9431c0 .2044-.0834.4009-.2337.5393-.2488.2291-.6193.6852-.7118 1.4256-.1427 1.1409-.7207 3.0548-2.4331 3.8223-.4584.2054-.9545.3392-1.4343.425-.6477.116-1.2652.1447-1.7181.1447zm2.1641-7.2477c-1.4928 0-4.0926.283-4.0926.283-2.7601.11-2.1831 2.349-2.1831 2.349l.8843 2.5699c.4398 1.2408 1.8258 1.5086 2.9403 1.5086.8465 0 1.5365-.1545 1.5365-.1545 3.5861-.3174 3.5926-4.3662 3.5926-4.3662.0828-1.741-.9396-1.9068-1.8239-2.1279-.1769-.0442-.4809-.0619-.8541-.0619zm-15.7799 0c-.3732 0-.6772.0177-.8541.0619-.8843.2211-1.9067.3869-1.8239 2.1279 0 0 .0065 4.0488 3.5925 4.3662 0 0 .69.1545 1.5365.1545 1.1146 0 2.5006-.2678 2.9404-1.5086l.8843-2.5699s.5769-2.239-2.1831-2.349c0 0-2.5999-.283-4.0926-.283z" fill="url(#b)"/><path d="m20.1044 24.9634c-.8464 0-1.5364-.1545-1.5364-.1545-3.5861-.3175-3.5926-4.3662-3.5926-4.3662-.0829-1.741.9396-1.9069 1.8239-2.1279.1769-.0442.4809-.0619.8541-.0619 1.4928 0 4.0926.2829 4.0926.2829 2.7601.1101 2.1831 2.3491 2.1831 2.3491l-.8843 2.5699c-.4398 1.2408-1.8258 1.5086-2.9404 1.5086zm2.4648-2.4928c-.0673 0-.1351.0117-.1981.0338-.1757.0617-.3191.1914-.4423.3309-.2895.3277-.4976.7271-.8244 1.0177-.2677.238-.6089.3922-.9644.4359-.0751.0093-.1557.0157-.2146.0632-.1023.0826-.1019.2912.0234.3307.1652.0318.3332.0472.5009.0472.9297 0 1.8587-.4729 2.3783-1.2482.0902-.1347.1702-.281.1954-.4411s-.0123-.337-.129-.4496c-.0859-.0829-.2047-.1205-.3252-.1205zm-5.805-3.9023s-1.6732.1061-1.5828 1.8089c.0258.485.1348.6632.2988.6633.4116.0001 1.1703-1.1225 1.8314-1.3308.9243-.2913.3093-1.0889-.5474-1.1414z" fill="url(#d)"/><path d="m30.9822 24.9635c-1.1146 0-2.5005-.2678-2.9403-1.5087l-.8843-2.5699s-.577-2.239 2.1831-2.349c0 0 2.5999-.283 4.0926-.283.3732 0 .6772.0177.8541.0619.8842.2211 1.9067.3869 1.8238 2.1279 0 0-.0065 4.0488-3.5925 4.3663 0 0-.69.1545-1.5365.1545zm4.221-3.8017c-.1398 0-.2809.0676-.3817.1681-.1318.1315-.2051.3104-.256.4895-.1196.4206-.1348.8707-.304 1.2738-.1386.3303-.3797.6167-.6815.8097-.0638.0408-.1338.0814-.1664.1498-.0539.1131.0258.2893.1462.2893.0058 0 .0117-.0004.0177-.0012 1.0656-.2796 1.9202-1.2364 2.0782-2.3266.0232-.1605.0322-.3269-.0142-.4822-.0465-.1553-.1567-.2988-.3106-.3499-.0416-.0138-.0846-.0203-.1277-.0203zm-6.4775-2.3948c-.0325 0-.0651.001-.0982.0033 0 0-1.6457.3196-1.3378 1.9968.0828.4509.2041.6212.3542.6213.4082.0002 1.0297-1.2585 1.6727-1.5563.8455-.3916.2197-1.0651-.5909-1.0651z" fill="url(#e)"/><path d="m15.482 21.0404c-.164 0-.273-.1782-.2988-.6633-.0904-1.7027 1.5828-1.8087 1.5828-1.8087.8567.0525 1.4717.85.5474 1.1413-.6611.2082-1.4198 1.3309-1.8314 1.3307z" fill="url(#g)"/><path d="m20.4517 24.7302c-.1677 0-.3356-.0154-.5009-.0472-.1254-.0395-.1256-.2481-.0235-.3307.0589-.0475.1397-.0539.2148-.0632.3555-.0437.6967-.1979.9644-.4359.3268-.2907.5348-.69.8243-1.0178.1233-.1395.2667-.2692.4424-.3309.0629-.0221.1307-.0338.198-.0338.1205 0 .2393.0376.3253.1205.1166.1126.1541.2895.129.4497-.0252.1601-.1052.3064-.1955.4411-.5196.7753-1.4486 1.2482-2.3783 1.2482z" fill="url(#h)"/><path d="m27.6445 21.3884c-.1501-.0001-.2714-.1704-.3542-.6212-.3079-1.6772 1.3378-1.9968 1.3378-1.9968.0331-.0023.0658-.0033.0983-.0033.8107 0 1.4364.6735.5909 1.0651-.643.2978-1.2646 1.5564-1.6728 1.5562z" fill="url(#i)"/><path d="m33.5618 24.3419c-.1204 0-.2001-.1762-.1462-.2893.0326-.0684.1027-.109.1664-.1498.3018-.1929.543-.4794.6816-.8097.1692-.4032.1844-.8533.304-1.2739.0509-.1791.1242-.358.256-.4895.1008-.1005.2419-.1681.3818-.1681.0431 0 .0861.0065.1277.0203.1538.0511.264.1946.3105.3499s.0375.3218.0142.4822c-.1579 1.0903-1.0125 2.0471-2.0782 2.3267-.006.0008-.012.0012-.0178.0012z" fill="url(#j)"/></svg>

<svg width="51" height="51" viewBox="0 0 51 51" fill="none" xmlns="http://www.w3.org/2000/svg">
<circle cx="25.5527" cy="25.5005" r="25" fill="#2A4266"/>
<path d="M25.553 28.0609C19.0553 28.0609 13.7882 31.0983 13.7882 34.8454C13.7882 38.5925 19.0553 41.6299 25.553 41.6299C32.0507 41.6299 37.3178 38.5924 37.3178 34.8454C37.3178 31.0984 32.0504 28.0609 25.553 28.0609ZM19.9043 35.717C18.7117 36.2999 17.6011 35.717 17.3881 34.3953C17.1547 32.9794 19.06 29.6142 19.4985 32.1589C19.9367 34.7034 21.8876 31.1452 21.8996 32.7376C21.8344 34.0233 21.0675 35.1687 19.9043 35.717ZM34.4313 34.3953C34.2183 35.717 33.1077 36.2999 31.9154 35.717C30.7519 35.1687 29.985 34.0233 29.9201 32.7376C29.9321 31.1452 31.8827 34.7034 32.3212 32.1589C32.7594 29.6142 34.6644 32.9794 34.4313 34.3953Z" fill="url(#paint0_linear_2717_4542)"/>
<path d="M42.5284 12.3518C42.1909 9.93581 34.0309 11.6589 32.9705 11.8414C32.916 11.8507 32.8652 11.8042 32.8763 11.7501C32.9843 11.2088 33.0623 9.74504 32.0271 9.42814C31.3651 9.22542 30.9288 9.59948 30.6696 9.97693C30.5537 10.1463 30.2066 10.8782 29.991 11.3863C29.8748 11.6607 29.6043 12.0617 29.3067 12.0545C28.059 11.6655 26.8059 11.471 25.553 11.471C24.2998 11.471 23.0466 11.6655 21.7989 12.0545C21.5014 12.0617 21.2306 11.6607 21.1144 11.3863C20.8988 10.8782 20.5517 10.1463 20.4358 9.97693C20.1769 9.59948 19.7406 9.22542 19.0786 9.42814C18.0433 9.74504 18.1212 11.2088 18.2293 11.7501C18.2402 11.8042 18.1894 11.8507 18.1352 11.8414C17.0747 11.6589 8.91481 9.93581 8.57708 12.3518C8.25672 14.6434 11.1506 17.8037 14.1786 19.224C14.4709 19.3611 14.7033 19.5928 14.9866 19.747C15.4631 20.0068 15.7474 20.6551 15.6776 21.2398V29.6788L16.7832 29.0437C18.4683 28.077 20.2272 27.6246 21.5813 27.3562H21.6293C22.7113 27.1158 23.8158 26.9922 24.9242 26.987H26.1815C27.2897 26.9922 28.3942 27.1158 29.4764 27.3562H29.5241C30.8784 27.6246 32.6372 28.077 34.3228 29.0437L35.4283 29.6788V21.2398C35.3583 20.6551 35.6423 20.0068 36.1188 19.747C36.4026 19.5928 36.6345 19.3611 36.9269 19.224C39.9548 17.8037 42.849 14.6434 42.5284 12.3518ZM24.7654 21.0035C24.7187 21.2539 24.1216 21.7149 22.6412 22.0969C21.6046 22.3581 20.5261 22.4554 19.4592 22.3895C19.2083 22.3737 18.9569 22.3319 18.7243 22.2369C18.2996 22.0639 17.9409 21.7665 17.674 21.3745C17.3137 20.8626 17.1419 20.2927 17.2519 19.6765C17.359 19.0597 17.7149 18.5827 18.2286 18.2254C18.6132 17.9482 19.0519 17.7916 19.51 17.7745C19.7608 17.7654 20.0117 17.8117 20.2524 17.8831C21.2775 18.1863 22.2581 18.6476 23.1429 19.2481C24.4036 20.1139 24.8072 20.7518 24.7654 21.0035ZM33.4317 21.3745C33.165 21.7665 32.806 22.0639 32.3814 22.2368C32.149 22.3319 31.8974 22.3737 31.6468 22.3895C30.5799 22.4554 29.501 22.3581 28.4645 22.0969C26.9838 21.7149 26.3872 21.2539 26.3405 21.0035C26.2987 20.7518 26.7021 20.1139 27.963 19.248C28.8478 18.6476 29.8281 18.1863 30.8535 17.8831C31.0943 17.8117 31.3448 17.7654 31.5959 17.7745C32.0538 17.7915 32.4929 17.9482 32.8774 18.2254C33.391 18.5827 33.7469 19.0594 33.8538 19.6763C33.9637 20.2924 33.792 20.8626 33.4317 21.3745Z" fill="url(#paint1_linear_2717_4542)"/>
<path d="M31.2705 25.5005C30.8254 25.5005 30.5391 25.4728 30.5391 25.4728C30.5391 25.4728 30.4589 25.4852 30.3201 25.4852C30.1398 25.4852 29.8606 25.4642 29.5299 25.3677C28.6642 25.1149 27.4454 24.3446 26.7229 22.0782C26.7229 22.0782 26.3003 20.1994 25.5467 20.1679C24.7931 20.1994 24.3673 22.0782 24.3673 22.0782C23.6449 24.3446 22.4263 25.115 21.5609 25.3677C21.2302 25.4643 20.9512 25.4852 20.7709 25.4852C20.6322 25.4852 20.552 25.4728 20.552 25.4728C20.552 25.4728 20.4549 25.4767 20.285 25.4767C19.9281 25.4767 19.2496 25.4594 18.4738 25.3518C17.8958 25.2717 17.2636 25.1413 16.6702 24.9308C14.9016 24.3032 14.3834 22.2494 14.2407 21.1085C14.1483 20.3686 13.7813 19.9125 13.5347 19.6833C13.3854 19.5445 13.3027 19.3484 13.3027 19.1446V17.2005C13.8267 17.1822 14.3451 17.1738 14.8565 17.1738C19.1137 17.1738 22.8478 17.7564 24.5825 18.0776C24.9021 18.1368 25.2255 18.1663 25.549 18.1663C25.872 18.1663 26.1952 18.1368 26.5143 18.0778C28.2507 17.7566 31.9885 17.1738 36.2476 17.1738C36.7589 17.1738 37.2777 17.1822 37.8015 17.2005V19.1436C37.8015 19.348 37.7181 19.5445 37.5678 19.6829C37.319 19.912 36.9485 20.3681 36.856 21.1085C36.7133 22.2494 36.1353 24.1633 34.4229 24.9308C33.9645 25.1362 33.4684 25.27 32.9886 25.3558C32.3409 25.4718 31.7234 25.5005 31.2705 25.5005ZM33.4346 18.2528C31.9418 18.2528 29.342 18.5358 29.342 18.5358C26.5819 18.6458 27.1589 20.8848 27.1589 20.8848L28.0432 23.4547C28.483 24.6955 29.869 24.9633 30.9835 24.9633C31.83 24.9633 32.52 24.8088 32.52 24.8088C36.1061 24.4914 36.1126 20.4426 36.1126 20.4426C36.1954 18.7016 35.173 18.5358 34.2887 18.3147C34.1118 18.2705 33.8078 18.2528 33.4346 18.2528ZM17.6547 18.2528C17.2815 18.2528 16.9775 18.2705 16.8006 18.3147C15.9163 18.5358 14.8939 18.7016 14.9767 20.4426C14.9767 20.4426 14.9832 24.4914 18.5692 24.8088C18.5692 24.8088 19.2592 24.9633 20.1057 24.9633C21.2203 24.9633 22.6063 24.6955 23.0461 23.4547L23.9304 20.8848C23.9304 20.8848 24.5073 18.6458 21.7473 18.5358C21.7473 18.5358 19.1474 18.2528 17.6547 18.2528Z" fill="url(#paint2_radial_2717_4542)"/>
<path d="M20.1044 24.9634C19.258 24.9634 18.568 24.8089 18.568 24.8089C14.9819 24.4914 14.9754 20.4427 14.9754 20.4427C14.8925 18.7017 15.915 18.5358 16.7993 18.3148C16.9762 18.2706 17.2802 18.2529 17.6534 18.2529C19.1462 18.2529 21.746 18.5358 21.746 18.5358C24.5061 18.6459 23.9291 20.8849 23.9291 20.8849L23.0448 23.4548C22.605 24.6956 21.219 24.9634 20.1044 24.9634ZM22.5692 22.4706C22.5019 22.4706 22.4341 22.4823 22.3711 22.5044C22.1954 22.5661 22.052 22.6958 21.9288 22.8353C21.6393 23.163 21.4312 23.5624 21.1044 23.853C20.8367 24.091 20.4955 24.2452 20.14 24.2889C20.0649 24.2982 19.9843 24.3046 19.9254 24.3521C19.8231 24.4347 19.8235 24.6433 19.9488 24.6828C20.114 24.7146 20.282 24.73 20.4497 24.73C21.3794 24.73 22.3084 24.2571 22.828 23.4818C22.9182 23.3471 22.9982 23.2008 23.0234 23.0407C23.0486 22.8806 23.0111 22.7037 22.8944 22.5911C22.8085 22.5082 22.6897 22.4706 22.5692 22.4706ZM16.7642 18.5683C16.7642 18.5683 15.091 18.6744 15.1814 20.3772C15.2072 20.8622 15.3162 21.0404 15.4802 21.0405C15.8918 21.0406 16.6505 19.918 17.3116 19.7097C18.2359 19.4184 17.6209 18.6208 16.7642 18.5683Z" fill="url(#paint3_linear_2717_4542)"/>
<path d="M30.9822 24.9635C29.8676 24.9635 28.4817 24.6957 28.0419 23.4548L27.1576 20.8849C27.1576 20.8849 26.5806 18.6459 29.3407 18.5359C29.3407 18.5359 31.9406 18.2529 33.4333 18.2529C33.8065 18.2529 34.1105 18.2706 34.2874 18.3148C35.1716 18.5359 36.1941 18.7017 36.1112 20.4427C36.1112 20.4427 36.1047 24.4915 32.5187 24.809C32.5187 24.809 31.8287 24.9635 30.9822 24.9635ZM35.2032 21.1618C35.0634 21.1618 34.9223 21.2294 34.8215 21.3299C34.6897 21.4614 34.6164 21.6403 34.5655 21.8194C34.4459 22.24 34.4307 22.6901 34.2615 23.0932C34.1229 23.4235 33.8818 23.7099 33.58 23.9029C33.5162 23.9437 33.4462 23.9843 33.4136 24.0527C33.3597 24.1658 33.4394 24.342 33.5598 24.342C33.5656 24.342 33.5715 24.3416 33.5775 24.3408C34.6431 24.0612 35.4977 23.1044 35.6557 22.0142C35.6789 21.8537 35.6879 21.6873 35.6415 21.532C35.595 21.3767 35.4848 21.2332 35.3309 21.1821C35.2893 21.1683 35.2463 21.1618 35.2032 21.1618ZM28.7257 18.767C28.6932 18.767 28.6606 18.768 28.6275 18.7703C28.6275 18.7703 26.9818 19.0899 27.2897 20.7671C27.3725 21.218 27.4938 21.3883 27.6439 21.3884C28.0521 21.3886 28.6736 20.1299 29.3166 19.8321C30.1621 19.4405 29.5363 18.767 28.7257 18.767Z" fill="url(#paint4_linear_2717_4542)"/>
<path d="M15.482 21.0404C15.318 21.0404 15.209 20.8622 15.1832 20.3771C15.0928 18.6744 16.766 18.5684 16.766 18.5684C17.6227 18.6209 18.2377 19.4184 17.3134 19.7097C16.6523 19.9179 15.8936 21.0406 15.482 21.0404Z" fill="url(#paint5_linear_2717_4542)"/>
<path d="M20.4517 24.7302C20.284 24.7302 20.1161 24.7148 19.9508 24.683C19.8254 24.6435 19.8252 24.4349 19.9273 24.3523C19.9862 24.3048 20.067 24.2984 20.1421 24.2891C20.4976 24.2454 20.8388 24.0912 21.1065 23.8532C21.4333 23.5625 21.6413 23.1632 21.9308 22.8354C22.0541 22.6959 22.1975 22.5662 22.3732 22.5045C22.4361 22.4824 22.5039 22.4707 22.5712 22.4707C22.6917 22.4707 22.8105 22.5083 22.8965 22.5912C23.0131 22.7038 23.0506 22.8807 23.0255 23.0409C23.0003 23.201 22.9203 23.3473 22.83 23.482C22.3104 24.2573 21.3814 24.7302 20.4517 24.7302Z" fill="url(#paint6_linear_2717_4542)"/>
<path d="M27.6445 21.3884C27.4944 21.3883 27.3731 21.218 27.2903 20.7672C26.9824 19.09 28.6281 18.7704 28.6281 18.7704C28.6612 18.7681 28.6939 18.7671 28.7264 18.7671C29.5371 18.7671 30.1628 19.4406 29.3173 19.8322C28.6743 20.13 28.0527 21.3886 27.6445 21.3884Z" fill="url(#paint7_linear_2717_4542)"/>
<path d="M33.5618 24.3419C33.4414 24.3419 33.3617 24.1657 33.4156 24.0526C33.4482 23.9842 33.5183 23.9436 33.582 23.9028C33.8838 23.7099 34.125 23.4234 34.2636 23.0931C34.4328 22.6899 34.448 22.2398 34.5676 21.8192C34.6185 21.6401 34.6918 21.4612 34.8236 21.3297C34.9244 21.2292 35.0655 21.1616 35.2054 21.1616C35.2485 21.1616 35.2915 21.1681 35.3331 21.1819C35.4869 21.233 35.5971 21.3765 35.6436 21.5318C35.6901 21.6871 35.6811 21.8536 35.6578 22.014C35.4999 23.1043 34.6453 24.0611 33.5796 24.3407C33.5736 24.3415 33.5676 24.3419 33.5618 24.3419Z" fill="url(#paint8_linear_2717_4542)"/>
<defs>
<linearGradient id="paint0_linear_2717_4542" x1="8.55273" y1="41.6299" x2="40.767" y2="7.67678" gradientUnits="userSpaceOnUse">
<stop stop-color="#FFE7E0"/>
<stop offset="0.34375" stop-color="#F8DBF4"/>
<stop offset="0.6875" stop-color="#C4DDFF"/>
<stop offset="1" stop-color="#CAE9FF"/>
</linearGradient>
<linearGradient id="paint1_linear_2717_4542" x1="8.55273" y1="41.6299" x2="40.767" y2="7.67678" gradientUnits="userSpaceOnUse">
<stop stop-color="#FFE7E0"/>
<stop offset="0.34375" stop-color="#F8DBF4"/>
<stop offset="0.6875" stop-color="#C4DDFF"/>
<stop offset="1" stop-color="#CAE9FF"/>
</linearGradient>
<radialGradient id="paint2_radial_2717_4542" cx="0" cy="0" r="1" gradientUnits="userSpaceOnUse" gradientTransform="translate(25.5521 21.3372) scale(12.301 12.301)">
<stop stop-color="#464648"/>
<stop offset="0.536272" stop-color="#2E2D2D"/>
<stop offset="0.990474" stop-color="#1B1919"/>
<stop offset="1" stop-color="#1B1919"/>
</radialGradient>
<linearGradient id="paint3_linear_2717_4542" x1="19.2918" y1="25.0223" x2="19.5549" y2="18.2696" gradientUnits="userSpaceOnUse">
<stop stop-color="#EFEE0E"/>
<stop offset="0.517399" stop-color="#7FCC2A"/>
<stop offset="1" stop-color="#3AAE9B"/>
</linearGradient>
<linearGradient id="paint4_linear_2717_4542" x1="31.5808" y1="24.9371" x2="31.6246" y2="18.4036" gradientUnits="userSpaceOnUse">
<stop stop-color="#EFEE0E"/>
<stop offset="0.517399" stop-color="#7FCC2A"/>
<stop offset="1" stop-color="#3AAE9B"/>
</linearGradient>
<linearGradient id="paint5_linear_2717_4542" x1="19.2936" y1="25.0224" x2="19.5566" y2="18.2697" gradientUnits="userSpaceOnUse">
<stop stop-color="#F5F460"/>
<stop offset="0.517399" stop-color="#BFE587"/>
<stop offset="1" stop-color="#82D4C5"/>
</linearGradient>
<linearGradient id="paint6_linear_2717_4542" x1="19.2938" y1="25.0225" x2="19.5569" y2="18.2698" gradientUnits="userSpaceOnUse">
<stop stop-color="#F5F460"/>
<stop offset="0.517399" stop-color="#BFE587"/>
<stop offset="1" stop-color="#82D4C5"/>
</linearGradient>
<linearGradient id="paint7_linear_2717_4542" x1="31.5815" y1="24.9372" x2="31.6254" y2="18.4037" gradientUnits="userSpaceOnUse">
<stop stop-color="#F5F460"/>
<stop offset="0.517399" stop-color="#BFE587"/>
<stop offset="1" stop-color="#82D4C5"/>
</linearGradient>
<linearGradient id="paint8_linear_2717_4542" x1="31.5828" y1="24.937" x2="31.6267" y2="18.4035" gradientUnits="userSpaceOnUse">
<stop stop-color="#F5F460"/>
<stop offset="0.517399" stop-color="#BFE587"/>
<stop offset="1" stop-color="#82D4C5"/>
</linearGradient>
</defs>
</svg>
